svgs/solid/truck-flatbed.svg

<svg xmlns="http://www.w3.org/2000/svg" viewBox="0 0 640 512"><!--! Font Awesome Pro 6.4.2 by @fontawesome - https://fontawesome.com License - https://fontawesome.com/license (Commercial License) Copyright 2023 Fonticons, Inc. --><path d="M608 416H576c0 53-43 96-96 96s-96-43-96-96H352 256c0 53-43 96-96 96s-96-43-96-96H32c-17.7 0-32-14.3-32-32s14.3-32 32-32H88.4c17.6-19.6 43.1-32 71.6-32s54 12.4 71.6 32H352V128c0-17.7 14.3-32 32-32h16 16 50.7c17 0 33.3 6.7 45.3 18.7L589.3 192c12 12 18.7 28.3 18.7 45.3V256v32 64c17.7 0 32 14.3 32 32s-14.3 32-32 32zM416 160v96H544V237.3L466.7 160H416zM208 416a48 48 0 1 0 -96 0 48 48 0 1 0 96 0zm272 48a48 48 0 1 0 0-96 48 48 0 1 0 0 96z"/></svg>

<svg xmlns="http://www.w3.org/2000/svg" viewBox="0 0 640 512"><!--! Font Awesome Pro 6.1.1 by @fontawesome - https://fontawesome.com License - https://fontawesome.com/license (Commercial License) Copyright 2022 Fonticons, Inc. --><path d="M608 416H576C576 469 533 512 480 512C426.1 512 384 469 384 416H256C256 469 213 512 160 512C106.1 512 64 469 64 416H32C14.33 416 0 401.7 0 384C0 366.3 14.33 352 32 352H88.44C106 332.4 131.6 320 160 320C188.4 320 213.1 332.4 231.6 352H352V128C352 110.3 366.3 96 384 96H466.7C483.7 96 499.1 102.7 512 114.7L589.3 192C601.3 204 608 220.3 608 237.3V352C625.7 352 640 366.3 640 384C640 401.7 625.7 416 608 416zM416 160V256H544V237.3L466.7 160H416zM160 368C133.5 368 112 389.5 112 416C112 442.5 133.5 464 160 464C186.5 464 208 442.5 208 416C208 389.5 186.5 368 160 368zM480 464C506.5 464 528 442.5 528 416C528 389.5 506.5 368 480 368C453.5 368 432 389.5 432 416C432 442.5 453.5 464 480 464z"/></svg>
